symbols/web/electric_rickshaw/materialsymbolsrounded/electric_rickshaw_wght200_40px.svg

<svg xmlns="http://www.w3.org/2000/svg" height="40" width="40"><path d="M10.167 27.708q-1.709 0-2.917-1.125-1.208-1.125-1.417-2.666h-.125q-.583 0-1.229-.459-.646-.458-.646-1.708V9.083q0-1 .709-1.708.708-.708 1.75-.708h18.875q.791 0 1.479.229.687.229 1.146.854l5.5 7.292q.291.458.396.958.104.5.104 1.083v2.334q1.041.541 1.708 1.541.667 1 .667 2.375 0 1.792-1.292 3.084-1.292 1.291-3.083 1.291-1.75 0-2.917-1.104-1.167-1.104-1.458-2.687H14.542q-.292 1.541-1.438 2.666t-2.937 1.125Zm-4.917-13.5h7.875V8.083H6.292q-.459 0-.75.292-.292.292-.292.708Zm9.292 8.417h10.416V8.083H14.542v6.125h5.375q.333 0 .521.209.187.208.187.5 0 .291-.187.5-.188.208-.521.208h-5.375Zm11.833-6.667h5.792L26.375 8.25ZM10.167 26.292q1.25 0 2.104-.854.854-.855.854-2.105t-.854-2.125q-.854-.875-2.104-.875t-2.105.875q-.854.875-.854 2.125t.854 2.105q.855.854 2.105.854Zm21.625 0q1.25 0 2.104-.854.854-.855.854-2.105t-.854-2.125q-.854-.875-2.104-.875t-2.125.875q-.875.875-.875 2.125t.875 2.105q.875.854 2.125.854ZM21.875 37.75l-8.458-4.292h5.666v-2.833l8.459 4.25h-5.667ZM5.25 15.625v6.125q0 .417.125.583.125.167.542.167.166-1.458 1.395-2.5 1.23-1.042 2.855-1.042.833 0 1.687.354.854.355 1.271.896v-4.583Zm21.125 7h1.083q.25-1.5 1.563-2.708 1.312-1.209 3.354-.875v-1.667h-6Zm1.083-5.25h-1.083 6-4.917Zm-21.541-1.75H5.25h7.875-7.208Z"/></svg>

<svg xmlns="http://www.w3.org/2000/svg" height="40" width="40"><path d="M10.167 27.708Q8.458 27.708 7.25 26.583Q6.042 25.458 5.833 23.917H5.708Q5.125 23.917 4.479 23.458Q3.833 23 3.833 21.75V9.083Q3.833 8.083 4.542 7.375Q5.25 6.667 6.292 6.667H25.167Q25.958 6.667 26.646 6.896Q27.333 7.125 27.792 7.75L33.292 15.042Q33.583 15.5 33.688 16Q33.792 16.5 33.792 17.083V19.417Q34.833 19.958 35.5 20.958Q36.167 21.958 36.167 23.333Q36.167 25.125 34.875 26.417Q33.583 27.708 31.792 27.708Q30.042 27.708 28.875 26.604Q27.708 25.5 27.417 23.917H14.542Q14.25 25.458 13.104 26.583Q11.958 27.708 10.167 27.708ZM5.25 14.208H13.125V8.083H6.292Q5.833 8.083 5.542 8.375Q5.25 8.667 5.25 9.083ZM14.542 22.625H24.958V8.083H14.542V14.208H19.917Q20.25 14.208 20.438 14.417Q20.625 14.625 20.625 14.917Q20.625 15.208 20.438 15.417Q20.25 15.625 19.917 15.625H14.542ZM26.375 15.958H32.167L26.375 8.25ZM10.167 26.292Q11.417 26.292 12.271 25.438Q13.125 24.583 13.125 23.333Q13.125 22.083 12.271 21.208Q11.417 20.333 10.167 20.333Q8.917 20.333 8.062 21.208Q7.208 22.083 7.208 23.333Q7.208 24.583 8.062 25.438Q8.917 26.292 10.167 26.292ZM31.792 26.292Q33.042 26.292 33.896 25.438Q34.75 24.583 34.75 23.333Q34.75 22.083 33.896 21.208Q33.042 20.333 31.792 20.333Q30.542 20.333 29.667 21.208Q28.792 22.083 28.792 23.333Q28.792 24.583 29.667 25.438Q30.542 26.292 31.792 26.292ZM21.875 37.75 13.417 33.458H19.083V30.625L27.542 34.875H21.875ZM5.25 15.625V21.75Q5.25 22.167 5.375 22.333Q5.5 22.5 5.917 22.5Q6.083 21.042 7.312 20Q8.542 18.958 10.167 18.958Q11 18.958 11.854 19.312Q12.708 19.667 13.125 20.208V15.625ZM26.375 22.625H27.458Q27.708 21.125 29.021 19.917Q30.333 18.708 32.375 19.042V17.375H26.375ZM27.458 17.375H26.375H32.375Q30.333 17.375 29.021 17.375Q27.708 17.375 27.458 17.375ZM5.917 15.625Q5.5 15.625 5.375 15.625Q5.25 15.625 5.25 15.625H13.125Q12.708 15.625 11.854 15.625Q11 15.625 10.167 15.625Q8.542 15.625 7.312 15.625Q6.083 15.625 5.917 15.625Z"/></svg>
